packages/merlin-www-assets/imports/houseandgarden/icons/gallery-zoom-in.svg

<svg viewBox="0 0 20 20" xmlns="http://www.w3.org/2000/svg"><path d="m10 20a10 10 0 1 1 10-10 10 10 0 0 1 -10 10zm0-18.7a8.7 8.7 0 1 0 8.7 8.7 8.7 8.7 0 0 0 -8.7-8.7z"/><path d="m15 9.41h-4.28v-4.32h-1.3v4.32h-4.32v1.3h4.32v4.29h1.3v-4.29h4.28z"/></svg>

<svg xmlns="http://www.w3.org/2000/svg" viewBox="0 0 20 20"><title>gallery-zoom-in</title><path d="M10,20A10,10,0,1,1,20,10,10,10,0,0,1,10,20ZM10,1.3A8.7,8.7,0,1,0,18.7,10,8.7,8.7,0,0,0,10,1.3Z"/><path d="M15,9.41H10.72V5.09H9.42V9.41H5.1v1.3H9.42V15h1.3V10.71H15V9.41"/></svg>
